assets/img/logo.svg

<svg width="242" height="48" viewBox="0 0 242 48" fill="none" xmlns="http://www.w3.org/2000/svg">
<g id="Group 11">
<path id="dappy" fill-rule="evenodd" clip-rule="evenodd" d="M57.7588 30.5844V9.73413H61.251C62.6968 9.73413 64.0586 9.9917 65.3374 10.5067C66.6162 11.0219 67.7319 11.7451 68.6841 12.676C69.6362 13.6071 70.3901 14.7094 70.9458 15.9835C71.5015 17.2583 71.7793 18.6545 71.7793 20.1727C71.7793 21.6006 71.5366 22.9205 71.0518 24.1313C70.5664 25.3427 69.8965 26.3951 69.041 27.2903C68.1855 28.1849 67.1851 28.9077 66.0386 29.4591C64.8921 30.0105 63.6582 30.3402 62.3354 30.4487C61.9473 30.4851 61.5586 30.5162 61.1714 30.5438C61.0337 30.5533 60.895 30.5613 60.7549 30.5675C60.5005 30.5787 60.2427 30.5844 59.981 30.5844H57.7588ZM81.251 25.663C81.7275 23.937 81.9653 22.1161 81.9653 20.1996C81.9653 18.3018 81.7227 16.485 81.2378 14.7498C80.7524 13.0145 80.0737 11.3971 79.2012 9.89648C78.3281 8.39648 77.2739 7.04077 76.0396 5.82935C74.8052 4.61853 73.4429 3.5791 71.9526 2.71143C70.4619 1.84375 68.8579 1.17554 67.1377 0.705078C65.4185 0.235229 63.6328 0 61.7812 0H48.7393C48.3335 0 48.0298 0.11792 47.8271 0.352539C47.7134 0.484131 47.6318 0.638306 47.582 0.815063C47.5723 0.849365 47.564 0.884521 47.5566 0.920532C47.5503 0.95166 47.5449 0.983398 47.5405 1.01575C47.5288 1.0979 47.5229 1.1842 47.5229 1.27466V39.152C47.5229 39.6224 47.646 39.9293 47.8926 40.0736C48.1401 40.2185 48.4224 40.2906 48.7393 40.2906H61.7812C63.6328 40.2906 65.4224 40.0601 67.1514 39.5996C68.8794 39.1384 70.4883 38.4838 71.979 37.6338C73.4692 36.7843 74.8271 35.7537 76.0527 34.5427C77.2783 33.3319 78.332 31.9803 79.2139 30.4891C80.0957 28.9979 80.7749 27.3894 81.251 25.663ZM122.305 38.8099C122.341 38.6394 122.359 38.4641 122.359 38.2843V7.72766C122.359 7.57666 122.348 7.43347 122.325 7.29797C122.299 7.14172 122.257 6.99573 122.201 6.85999C122.095 6.60718 121.918 6.38135 121.672 6.1825C121.477 5.98364 121.248 5.85693 120.984 5.80286C120.804 5.76587 120.641 5.74158 120.493 5.72986L120.395 5.72363C120.361 5.72217 120.328 5.72144 120.296 5.72144H116.354C116.001 5.72144 115.728 5.74426 115.534 5.78882C115.34 5.83459 115.177 5.92444 115.045 6.06042C114.959 6.14832 114.877 6.26648 114.799 6.41504C114.756 6.49573 114.715 6.58545 114.674 6.68408C114.56 6.96436 114.414 7.32996 114.238 7.78223L113.471 10.2496C112.995 9.54443 112.439 8.88916 111.804 8.2832C111.169 7.67786 110.459 7.15808 109.674 6.72449C108.89 6.29102 108.025 5.94727 107.082 5.69434C106.139 5.44153 105.12 5.31482 104.027 5.31482C101.628 5.31482 99.3799 5.77124 97.2812 6.68408C95.1821 7.5968 93.3569 8.85291 91.8052 10.4526C90.2529 12.0524 89.0278 13.9325 88.1279 16.0919C87.2285 18.2524 86.7788 20.589 86.7788 23.1011C86.7788 24.7642 86.9814 26.3591 87.3872 27.8862C87.793 29.4143 88.3706 30.8375 89.1201 32.1569C89.8696 33.4763 90.7642 34.6741 91.8052 35.7495C92.8457 36.8253 94.0049 37.7469 95.2842 38.5149C96.562 39.2833 97.938 39.8752 99.4106 40.2906C100.883 40.7065 102.422 40.9148 104.027 40.9148C104.926 40.9148 105.794 40.8015 106.632 40.5757C107.47 40.3494 108.255 40.0518 108.987 39.681C109.719 39.3103 110.389 38.8903 110.997 38.4198C111.605 37.9504 112.148 37.4712 112.625 36.9832L112.968 38.2028C113.074 38.5107 113.175 38.7953 113.272 39.057C113.369 39.3192 113.488 39.5409 113.629 39.7216C113.771 39.9022 113.956 40.0425 114.185 40.1416C114.414 40.2413 114.714 40.2906 115.084 40.2906H120.296C120.49 40.2906 120.719 40.2637 120.984 40.2096C121.248 40.1552 121.477 40.0289 121.672 39.8301C121.918 39.667 122.095 39.4458 122.201 39.1654C122.245 39.0493 122.279 38.9308 122.305 38.8099ZM96.3018 23.1007C96.3018 24.2935 96.4819 25.4098 96.8438 26.4492C96.8706 26.5266 96.8984 26.6031 96.9272 26.679L96.9673 26.7823L97.0195 26.9127C97.103 27.1165 97.1929 27.3143 97.2891 27.5063C97.5923 28.1113 97.96 28.6583 98.3916 29.1472C99.0615 29.9062 99.8687 30.5076 100.812 30.95C101.755 31.3933 102.8 31.614 103.947 31.614C105.128 31.614 106.226 31.3933 107.24 30.95C108.254 30.5076 109.136 29.9062 109.886 29.1472C110.635 28.3881 111.222 27.4888 111.645 26.4492C112.068 25.4098 112.28 24.2935 112.28 23.1007C112.28 21.9438 112.068 20.8411 111.645 19.7927C111.222 18.7449 110.635 17.8228 109.886 17.0273C109.136 16.2318 108.254 15.6041 107.24 15.1431C106.226 14.682 105.128 14.4514 103.947 14.4514C102.8 14.4514 101.755 14.682 100.812 15.1431C99.8687 15.6041 99.0615 16.2318 98.3916 17.0273C97.7212 17.8228 97.2056 18.7449 96.8438 19.7927C96.4819 20.8411 96.3018 21.9438 96.3018 23.1007ZM138.84 38.4923V47.1302C138.84 47.6105 138.46 47.9999 137.991 47.9999H129.557C129.088 47.9999 128.708 47.6105 128.708 47.1302V7.72742C128.708 7.58057 128.719 7.44421 128.741 7.31836C128.773 7.13428 128.828 6.97241 128.907 6.83276C129.039 6.59814 129.202 6.3811 129.396 6.18225C129.625 5.9834 129.863 5.85669 130.11 5.80261C130.163 5.79089 130.215 5.78052 130.268 5.77136C130.344 5.75806 130.419 5.74744 130.493 5.73938C130.605 5.72729 130.716 5.72119 130.825 5.72119H134.819C135.021 5.72119 135.202 5.74097 135.363 5.78064C135.468 5.80664 135.565 5.84119 135.652 5.88416C135.873 5.99219 136.053 6.14172 136.194 6.33118C136.336 6.52124 136.455 6.73779 136.552 6.98181C136.648 7.22583 136.741 7.4928 136.83 7.78198L137.425 9.54163C137.647 10.1969 138.49 10.3376 138.901 9.78723C139.079 9.54993 139.257 9.31055 139.435 9.0697C139.938 8.39209 140.533 7.77722 141.221 7.22583C141.909 6.67444 142.729 6.21851 143.681 5.85669C144.633 5.49524 145.797 5.31458 147.173 5.31458C149.589 5.31458 151.815 5.771 153.853 6.68384C155.89 7.59656 157.645 8.85266 159.117 10.4524C160.589 12.0521 161.74 13.9323 162.569 16.0922C163.398 18.2522 163.812 20.5887 163.812 23.1008C163.812 25.5952 163.398 27.927 162.569 30.0958C161.74 32.2651 160.589 34.1494 159.117 35.7493C157.645 37.349 155.89 38.6096 153.853 39.5317C151.815 40.4534 149.589 40.9146 147.173 40.9146C146.026 40.9146 145.039 40.7743 144.21 40.4939C143.381 40.2141 142.645 39.848 142.001 39.3962C141.652 39.1517 141.326 38.8938 141.021 38.6224C140.965 38.5724 140.91 38.522 140.855 38.4711C140.773 38.3948 140.693 38.3174 140.615 38.2389L140.495 38.1167C140.427 38.0468 140.36 37.9761 140.295 37.9045C139.774 37.3329 138.84 37.7103 138.84 38.4923ZM138.101 22.6941C138.123 22.2321 138.18 21.7808 138.272 21.3401L138.298 21.2179C138.317 21.1356 138.337 21.0537 138.358 20.9722C138.486 20.4746 138.661 19.991 138.881 19.5216C139.348 18.5277 139.957 17.6643 140.707 16.9321C141.456 16.2006 142.329 15.6222 143.325 15.1974C144.322 14.7727 145.375 14.5598 146.486 14.5598C147.615 14.5598 148.646 14.7863 149.582 15.2379C150.516 15.6897 151.318 16.3044 151.989 17.0812C152.659 17.859 153.179 18.7671 153.55 19.8062C153.92 20.8461 154.105 21.9443 154.105 23.1006C154.105 24.2938 153.92 25.4148 153.55 26.4626C153.179 27.5115 152.659 28.4196 151.989 29.1875C151.318 29.9561 150.516 30.566 149.582 31.0178C148.646 31.4696 147.615 31.6954 146.486 31.6954C145.34 31.6954 144.255 31.4696 143.232 31.0178C142.209 30.566 141.319 29.9561 140.561 29.1875C139.802 28.4196 139.203 27.5115 138.762 26.4626C138.321 25.4148 138.101 24.2938 138.101 23.1006V22.6941ZM179.234 38.4663V47.1406C179.234 47.6151 178.859 47.9999 178.396 47.9999H169.941C169.479 47.9999 169.103 47.6151 169.103 47.1406V7.72742C169.103 7.36609 169.169 7.06799 169.301 6.83276C169.433 6.59814 169.597 6.3811 169.791 6.18225C170.02 5.9834 170.258 5.85669 170.505 5.80261C170.751 5.74817 170.99 5.72119 171.219 5.72119H175.213C175.548 5.72119 175.826 5.77563 176.047 5.88416C176.267 5.99219 176.448 6.14172 176.589 6.33118C176.73 6.52124 176.849 6.73779 176.946 6.98181C177.043 7.22583 177.136 7.4928 177.224 7.78198L177.826 9.55981C178.045 10.2073 178.878 10.3459 179.285 9.80176C179.465 9.55981 179.647 9.3158 179.83 9.0697C180.332 8.39209 180.928 7.77722 181.615 7.22583C182.303 6.67444 183.123 6.21851 184.076 5.85669C185.028 5.49524 186.192 5.31458 187.567 5.31458C189.983 5.31458 192.21 5.771 194.247 6.68384C196.284 7.59656 198.039 8.85266 199.512 10.4524C200.984 12.0521 202.135 13.9323 202.963 16.0922C203.792 18.2522 204.207 20.5887 204.207 23.1008C204.207 25.5952 203.792 27.927 202.963 30.0958C202.135 32.2651 200.984 34.1494 199.512 35.7493C198.039 37.349 196.284 38.6096 194.247 39.5317C192.21 40.4534 189.983 40.9146 187.567 40.9146C187.32 40.9146 187.081 40.908 186.848 40.8949C186.621 40.8822 186.401 40.8633 186.188 40.8381C185.95 40.8101 185.722 40.7743 185.502 40.7307C185.185 40.6678 184.886 40.589 184.605 40.4939C183.775 40.2141 183.04 39.848 182.396 39.3962C181.752 38.9446 181.183 38.4471 180.689 37.9045L180.675 37.8884C180.16 37.3219 179.234 37.6921 179.234 38.4663ZM178.494 22.6941C178.546 21.5736 178.807 20.5159 179.274 19.5216C179.741 18.5277 180.35 17.6643 181.1 16.9321C181.849 16.2006 182.722 15.6222 183.718 15.1974C184.715 14.7727 185.769 14.5598 186.879 14.5598C188.008 14.5598 189.04 14.7863 189.975 15.2379C190.909 15.6897 191.711 16.3044 192.382 17.0812C193.052 17.859 193.572 18.7671 193.943 19.8062C194.313 20.8461 194.498 21.9443 194.498 23.1006C194.498 24.2938 194.313 25.4148 193.943 26.4626C193.572 27.5115 193.052 28.4196 192.382 29.1875C191.711 29.9561 190.909 30.566 189.975 31.0178C189.04 31.4696 188.008 31.6954 186.879 31.6954C185.733 31.6954 184.648 31.4696 183.625 31.0178C182.603 30.566 181.712 29.9561 180.954 29.1875C180.195 28.4196 179.596 27.5115 179.155 26.4626C178.714 25.4148 178.494 24.2938 178.494 23.1006V22.6941ZM215.966 46.8821L218.377 40.4592C218.451 40.2639 218.449 40.0469 218.371 39.8533L205.873 8.45959C205.591 7.73682 205.586 7.11743 205.859 6.60229C206.133 6.08728 206.736 5.82971 207.672 5.82971H214.206C214.646 5.82971 215.008 5.96985 215.291 6.24976C215.572 6.53015 215.784 6.87805 215.925 7.29346L222.646 26.8892C222.899 27.6244 223.915 27.6207 224.163 26.8839L230.739 7.29346C230.933 6.71558 231.18 6.32715 231.48 6.12781C231.78 5.92944 232.194 5.82971 232.723 5.82971H239.522C240.015 5.82971 240.403 5.89722 240.686 6.03271C240.968 6.16821 241.167 6.34949 241.281 6.57532C241.372 6.75366 241.416 6.9491 241.413 7.16138C241.412 7.2179 241.408 7.27563 241.4 7.33447C241.364 7.61487 241.294 7.89001 241.188 8.16101C240.519 9.86047 239.786 11.7178 238.993 13.7329C238.199 15.7485 237.375 17.8452 236.52 20.0233C235.664 22.2015 234.795 24.416 233.914 26.6664C233.032 28.9167 232.172 31.1261 231.335 33.2954C230.497 35.4642 229.69 37.5479 228.914 39.5448C228.138 41.5417 227.428 43.3767 226.785 45.0492C226.45 45.9163 226.141 46.7231 225.854 47.4791C225.733 47.7943 225.438 48 225.107 48H216.714C216.151 48 215.763 47.421 215.966 46.8821Z" fill="#1F2431"/>
<g id="Group">
<path id="Oval" fill-rule="evenodd" clip-rule="evenodd" d="M5.70265 17.2802C8.85214 17.2802 11.4053 14.7013 11.4053 11.5201C11.4053 8.33898 8.85214 5.76013 5.70265 5.76013C2.55316 5.76013 0 8.33898 0 11.5201C0 14.7013 2.55316 17.2802 5.70265 17.2802Z" fill="#315EFB"/>
<path id="Oval_2" fill-rule="evenodd" clip-rule="evenodd" d="M24.7119 36.4799C27.8614 36.4799 30.4146 33.901 30.4146 30.7199C30.4146 27.5387 27.8614 24.9598 24.7119 24.9598C21.5624 24.9598 19.0093 27.5387 19.0093 30.7199C19.0093 33.901 21.5624 36.4799 24.7119 36.4799Z" fill="#315EFB"/>
<path id="Oval_3" fill-rule="evenodd" clip-rule="evenodd" d="M24.5662 7.68068C21.3359 7.68068 18.7173 10.3257 18.7173 13.5884C18.7173 16.8511 21.3359 19.4961 24.5662 19.4961C27.7964 19.4961 30.415 16.8511 30.415 13.5884C30.415 10.3257 27.7964 7.68068 24.5662 7.68068Z" fill="#315EFB"/>
<path id="Oval_4" fill-rule="evenodd" clip-rule="evenodd" d="M5.84985 26.585C2.61961 26.585 0.000977516 29.2299 0.000977516 32.4927C0.000977516 35.7554 2.61961 38.4004 5.84985 38.4004C9.0801 38.4004 11.6987 35.7554 11.6987 32.4927C11.6987 29.2299 9.0801 26.585 5.84985 26.585Z" fill="#315EFB"/>
</g>
</g>
</svg>

<svg width="242" height="48" fill="none" xmlns="http://www.w3.org/2000/svg"><g fill-rule="evenodd" clip-rule="evenodd"><path d="M57.759 30.584V9.734h3.492c1.446 0 2.808.258 4.086.773a10.169 10.169 0 013.347 2.169 10.372 10.372 0 012.262 3.307c.555 1.275.833 2.671.833 4.19 0 1.428-.242 2.748-.727 3.958a9.786 9.786 0 01-2.011 3.16 10.277 10.277 0 01-3.002 2.168c-1.147.552-2.38.881-3.704.99a57.02 57.02 0 01-1.164.095 16.908 16.908 0 01-1.19.04h-2.222zm23.492-4.921c.477-1.726.714-3.547.714-5.463 0-1.898-.242-3.715-.727-5.45A20.705 20.705 0 0079.2 9.896a19.222 19.222 0 00-3.16-4.066 20.659 20.659 0 00-4.087-3.118A20.02 20.02 0 0067.138.705 20.229 20.229 0 0061.78 0H48.74c-.405 0-.71.118-.912.353a1.191 1.191 0 00-.27.568 1.836 1.836 0 00-.034.354v37.877c0 .47.123.777.37.922.247.145.53.217.846.217h13.042c1.852 0 3.641-.23 5.37-.691a20.227 20.227 0 004.828-1.966c1.49-.85 2.848-1.88 4.074-3.091a19.946 19.946 0 003.16-4.054 19.747 19.747 0 002.038-4.826zm41.054 13.147c.036-.17.054-.346.054-.526V7.728c0-.151-.011-.295-.034-.43a2.01 2.01 0 00-.124-.438 1.74 1.74 0 00-.529-.678 1.315 1.315 0 00-.688-.38 4.04 4.04 0 00-.491-.072l-.098-.006a2.309 2.309 0 00-.099-.003h-3.942c-.353 0-.626.023-.82.068a.977.977 0 00-.489.271 1.507 1.507 0 00-.246.355c-.043.08-.084.17-.125.27-.114.28-.26.645-.436 1.097l-.767 2.468a11.98 11.98 0 00-1.667-1.967 10.264 10.264 0 00-2.13-1.559 11.486 11.486 0 00-2.592-1.03 11.768 11.768 0 00-3.055-.38c-2.399 0-4.647.457-6.746 1.37a16.973 16.973 0 00-5.476 3.769c-1.552 1.6-2.777 3.48-3.677 5.639-.9 2.16-1.35 4.497-1.35 7.01a18.5 18.5 0 00.61 4.784 17.91 17.91 0 001.732 4.27 17.737 17.737 0 002.685 3.593 16.974 16.974 0 003.48 2.766 16.904 16.904 0 008.743 2.4c.898 0 1.766-.114 2.604-.34a12.278 12.278 0 002.355-.894 12.5 12.5 0 002.01-1.261c.608-.47 1.151-.949 1.628-1.437l.343 1.22c.106.308.207.592.304.854s.216.484.357.665c.142.18.327.32.556.42.229.1.529.149.899.149h5.212c.194 0 .423-.027.688-.081.264-.055.493-.181.688-.38a1.35 1.35 0 00.529-.665 2.46 2.46 0 00.104-.355zM96.302 23.1a10.114 10.114 0 00.625 3.579l.04.103.052.13c.084.204.174.402.27.594a7.618 7.618 0 001.103 1.641 7.355 7.355 0 002.42 1.803c.943.443 1.988.664 3.135.664 1.181 0 2.279-.22 3.293-.664a8.405 8.405 0 002.646-1.803 8.19 8.19 0 001.759-2.698 8.798 8.798 0 00.635-3.348c0-1.157-.212-2.26-.635-3.308a8.8 8.8 0 00-1.759-2.766 8.343 8.343 0 00-2.646-1.884 7.862 7.862 0 00-3.293-.692c-1.147 0-2.192.231-3.135.692a7.342 7.342 0 00-2.42 1.884 8.6 8.6 0 00-1.548 2.766 10.066 10.066 0 00-.542 3.308zm42.538 15.392v8.638c0 .48-.38.87-.849.87h-8.434a.86.86 0 01-.849-.87V7.727c0-.146.011-.283.033-.409a1.5 1.5 0 01.166-.485 3.12 3.12 0 01.489-.65 1.621 1.621 0 01.872-.412 3.51 3.51 0 01.557-.05h3.994c.202 0 .383.02.544.06a1.468 1.468 0 01.831.55c.142.19.261.407.358.65.096.245.189.512.278.801l.595 1.76a.84.84 0 001.476.245c.178-.237.356-.476.534-.717a9.993 9.993 0 011.786-1.844c.688-.552 1.508-1.007 2.46-1.37.952-.36 2.116-.541 3.492-.541 2.416 0 4.642.456 6.68 1.369a15.907 15.907 0 015.264 3.768c1.472 1.6 2.623 3.48 3.452 5.64.829 2.16 1.243 4.497 1.243 7.009 0 2.494-.414 4.826-1.243 6.995-.829 2.17-1.98 4.053-3.452 5.653a16.08 16.08 0 01-5.264 3.783c-2.038.921-4.264 1.383-6.68 1.383-1.147 0-2.134-.14-2.963-.421a8.62 8.62 0 01-2.209-1.098 10.75 10.75 0 01-1.386-1.157l-.12-.122a8.463 8.463 0 01-.2-.212c-.521-.572-1.455-.195-1.455.587zm-.739-15.798c.022-.462.079-.913.171-1.354l.026-.122.06-.246a8.829 8.829 0 012.349-4.04 8.458 8.458 0 012.618-1.735 7.98 7.98 0 013.161-.637c1.129 0 2.16.226 3.096.678a7.41 7.41 0 012.407 1.843 8.514 8.514 0 011.561 2.725c.37 1.04.555 2.138.555 3.295 0 1.193-.185 2.314-.555 3.362-.371 1.049-.891 1.957-1.561 2.724a7.486 7.486 0 01-2.407 1.83c-.936.453-1.967.678-3.096.678a7.966 7.966 0 01-3.254-.677 8.577 8.577 0 01-2.671-1.83 8.535 8.535 0 01-1.799-2.725 8.578 8.578 0 01-.661-3.362v-.407zm41.133 15.772v8.675a.849.849 0 01-.838.859h-8.455a.85.85 0 01-.838-.86V7.728c0-.36.066-.659.198-.894s.296-.452.49-.65c.229-.2.467-.326.714-.38.246-.055.485-.082.714-.082h3.994c.335 0 .613.055.834.163.22.108.401.258.542.447.141.19.26.407.357.65.097.245.19.512.278.801l.602 1.778a.83.83 0 001.459.242l.545-.732a9.987 9.987 0 011.785-1.844c.688-.552 1.508-1.007 2.461-1.37.952-.36 2.116-.541 3.491-.541 2.416 0 4.643.456 6.68 1.369a15.921 15.921 0 015.265 3.768c1.472 1.6 2.623 3.48 3.451 5.64.829 2.16 1.244 4.497 1.244 7.009 0 2.494-.415 4.826-1.244 6.995-.828 2.17-1.979 4.053-3.451 5.653a16.095 16.095 0 01-5.265 3.783c-2.037.921-4.264 1.383-6.68 1.383-.247 0-.486-.007-.719-.02a10.713 10.713 0 01-.66-.057 8.833 8.833 0 01-.686-.107 7.12 7.12 0 01-.897-.237 8.603 8.603 0 01-2.209-1.098 10.272 10.272 0 01-1.707-1.492l-.014-.016c-.515-.566-1.441-.196-1.441.578zm-.74-15.772a8.295 8.295 0 01.78-3.172 8.829 8.829 0 011.826-2.59 8.458 8.458 0 012.618-1.735 7.984 7.984 0 013.161-.637c1.129 0 2.161.226 3.096.678a7.41 7.41 0 012.407 1.843 8.514 8.514 0 011.561 2.725c.37 1.04.555 2.138.555 3.295 0 1.193-.185 2.314-.555 3.362-.371 1.049-.891 1.957-1.561 2.724a7.486 7.486 0 01-2.407 1.83c-.935.453-1.967.678-3.096.678a7.966 7.966 0 01-3.254-.677 8.588 8.588 0 01-2.671-1.83 8.535 8.535 0 01-1.799-2.725 8.578 8.578 0 01-.661-3.362v-.407zm37.472 24.188l2.411-6.423a.834.834 0 00-.006-.606L205.873 8.46c-.282-.723-.287-1.343-.014-1.858.274-.515.877-.772 1.813-.772h6.534c.44 0 .802.14 1.085.42.281.28.493.628.634 1.043l6.721 19.596a.797.797 0 001.517-.005l6.576-19.59c.194-.578.441-.967.741-1.166.3-.199.714-.298 1.243-.298h6.799c.493 0 .881.067 1.164.203.282.135.481.316.595.542.091.179.135.374.132.586a1.477 1.477 0 01-.013.173c-.036.28-.106.556-.212.827l-2.195 5.572c-.794 2.015-1.618 4.112-2.473 6.29-.856 2.178-1.725 4.393-2.606 6.643-.882 2.25-1.742 4.46-2.579 6.63a3493.92 3493.92 0 01-2.421 6.249 1650.334 1650.334 0 00-3.06 7.934.801.801 0 01-.747.521h-8.393c-.563 0-.951-.579-.748-1.118z" fill="#1F2431"/><path d="M5.703 17.28c3.15 0 5.702-2.579 5.702-5.76 0-3.181-2.553-5.76-5.702-5.76C2.553 5.76 0 8.34 0 11.52c0 3.181 2.553 5.76 5.703 5.76zm19.009 19.2c3.15 0 5.703-2.579 5.703-5.76 0-3.181-2.554-5.76-5.703-5.76-3.15 0-5.703 2.579-5.703 5.76 0 3.181 2.553 5.76 5.703 5.76zm-.146-28.8c-3.23 0-5.849 2.646-5.849 5.908 0 3.263 2.619 5.908 5.85 5.908 3.23 0 5.848-2.645 5.848-5.908 0-3.262-2.619-5.907-5.849-5.907zM5.85 26.585C2.62 26.585 0 29.23 0 32.493 0 35.755 2.619 38.4 5.849 38.4s5.849-2.645 5.849-5.907c0-3.263-2.619-5.908-5.85-5.908z" fill="#315EFB"/></g></svg>
